src/assets/images/search-icon.svg

<?xml version="1.0" encoding="UTF-8"?>
<svg width="19px" height="19px" viewBox="0 0 19 19" version="1.1" xmlns="http://www.w3.org/2000/svg" xmlns:xlink="http://www.w3.org/1999/xlink">
    <!-- Generator: Sketch 59.1 (86144) - https://sketch.com -->
    <title>Group 3</title>
    <desc>Created with Sketch.</desc>
    <defs>
        <polygon id="path-1" points="0 0 18.633 0 18.633 18.7609 0 18.7609"></polygon>
    </defs>
    <g id="Page-1" stroke="none" stroke-width="1" fill="none" fill-rule="evenodd">
        <g id="Group-3">
            <mask id="mask-2" fill="white">
                <use xlink:href="#path-1"></use>
            </mask>
            <g id="Clip-2"></g>
            <path d="M7.9607,13.759 C6.4127,13.759 4.9557,13.156 3.8607,12.061 C2.7657,10.966 2.1627,9.509 2.1627,7.961 C2.1627,6.412 2.7657,4.956 3.8607,3.861 C4.9557,2.766 6.4127,2.162 7.9607,2.162 C9.5097,2.162 10.9657,2.766 12.0607,3.861 C13.1557,4.956 13.7587,6.412 13.7587,7.961 C13.7587,9.509 13.1557,10.966 12.0607,12.061 C10.9657,13.156 9.5097,13.759 7.9607,13.759 M18.3167,16.915 L14.2417,12.841 C15.3267,11.45 15.9217,9.753 15.9217,7.961 C15.9217,5.835 15.0927,3.836 13.5897,2.332 C12.0867,0.828 10.0877,0 7.9607,0 C5.8347,0 3.8357,0.828 2.3317,2.332 C0.8287,3.836 -0.0003,5.835 -0.0003,7.961 C-0.0003,10.088 0.8287,12.087 2.3317,13.59 C3.8357,15.093 5.8347,15.922 7.9607,15.922 C9.6907,15.922 11.3317,15.365 12.6937,14.351 L16.7877,18.444 C16.9987,18.655 17.2757,18.761 17.5527,18.761 C17.8287,18.761 18.1057,18.655 18.3167,18.444 C18.7387,18.022 18.7387,17.338 18.3167,16.915" id="Fill-1" fill="#B2B2B2" mask="url(#mask-2)"></path>
        </g>
    </g>
</svg>

<svg xmlns="http://www.w3.org/2000/svg" xmlns:xlink="http://www.w3.org/1999/xlink" width="19" height="19" viewBox="0 0 19 19"><title>Group 3</title><defs><path id="a" d="M0 0h18.633v18.761H0z"/></defs><g fill="none" fill-rule="evenodd"><mask id="b" fill="#fff"><use xlink:href="#a"/></mask><path fill="#B2B2B2" d="M7.96 13.759a5.762 5.762 0 0 1-4.1-1.698 5.762 5.762 0 0 1-1.697-4.1 5.76 5.76 0 0 1 1.698-4.1 5.763 5.763 0 0 1 4.1-1.699c1.549 0 3.005.604 4.1 1.699a5.76 5.76 0 0 1 1.698 4.1 5.762 5.762 0 0 1-1.698 4.1 5.76 5.76 0 0 1-4.1 1.698m10.356 3.156l-4.075-4.074a7.895 7.895 0 0 0 1.68-4.88 7.913 7.913 0 0 0-2.332-5.629A7.905 7.905 0 0 0 7.96 0a7.908 7.908 0 0 0-5.628 2.332A7.913 7.913 0 0 0 0 7.961a7.91 7.91 0 0 0 2.332 5.629 7.913 7.913 0 0 0 5.629 2.332 7.89 7.89 0 0 0 4.733-1.571l4.094 4.093a1.079 1.079 0 0 0 1.529 0 1.082 1.082 0 0 0 0-1.529" mask="url(#b)"/></g></svg>
